icons/svgs/file-excel-outline.svg

<svg width="24" height="24" viewBox="0 0 24 24" fill="none" xmlns="http://www.w3.org/2000/svg">
<path d="M6.875 19.5C6.875 19.8516 7.14844 20.125 7.5 20.125H17.5C17.8125 20.125 18.125 19.8516 18.125 19.5V8.25H15C14.2969 8.25 13.75 7.70312 13.75 7V3.875H7.5C7.14844 3.875 6.875 4.1875 6.875 4.5V19.5ZM7.5 2H13.9453C14.6094 2 15.2344 2.27344 15.7031 2.74219L19.2578 6.29688C19.7266 6.76562 20 7.39062 20 8.05469V19.5C20 20.9062 18.8672 22 17.5 22H7.5C6.09375 22 5 20.9062 5 19.5V4.5C5 3.13281 6.09375 2 7.5 2ZM11.0156 11.1406L12.5 12.9766L13.9453 11.1406C14.2578 10.7109 14.8438 10.6328 15.2344 10.9453C15.6641 11.2969 15.7422 11.8828 15.3906 12.2734L13.6719 14.5L15.4297 16.7656C15.7422 17.1562 15.6641 17.7422 15.2344 18.0547C14.8438 18.3672 14.2578 18.3281 13.9453 17.8984L12.5 16.0625L11.0547 17.8984C10.7031 18.3281 10.1172 18.4062 9.72656 18.0547C9.29688 17.7422 9.25781 17.1562 9.57031 16.7656L11.2891 14.5L9.57031 12.2734C9.21875 11.8828 9.29688 11.2969 9.72656 10.9844C10.1172 10.6328 10.7031 10.7109 11.0156 11.1406Z" fill="black"/>
</svg>

<svg xmlns="http://www.w3.org/2000/svg" width="24" height="24" fill="currentColor" class="icon-file-excel-outline" viewBox="0 0 24 24">
  <mask id="a" width="15" height="20" x="5" y="2" maskUnits="userSpaceOnUse" style="mask-type:alpha">
    <path d="M6.875 19.5c0 .352.273.625.625.625h10a.64.64 0 0 0 .625-.625V8.25H15c-.703 0-1.25-.547-1.25-1.25V3.875H7.5a.64.64 0 0 0-.625.625zM7.5 2h6.445c.664 0 1.29.273 1.758.742l3.555 3.555c.469.469.742 1.094.742 1.758V19.5c0 1.406-1.133 2.5-2.5 2.5h-10A2.47 2.47 0 0 1 5 19.5v-15C5 3.133 6.094 2 7.5 2m3.516 9.14 1.484 1.837 1.445-1.836a.9.9 0 0 1 1.29-.196c.43.352.507.938.156 1.328L13.67 14.5l1.759 2.266a.9.9 0 0 1-.196 1.289c-.39.312-.976.273-1.289-.157L12.5 16.063l-1.445 1.835c-.352.43-.938.508-1.328.157-.43-.313-.47-.899-.157-1.29l1.72-2.265-1.72-2.227c-.351-.39-.273-.976.157-1.289.39-.351.976-.273 1.289.157"/>
  </mask>
  <g mask="url(#a)">
    <path d="M0 0h24v24H0z"/>
  </g>
</svg>
